src/lib/packages/icons/src/assets/filled/video-outgoing.svg

<svg width="24" height="24" viewBox="0 0 24 24" fill="none" xmlns="http://www.w3.org/2000/svg">
<path d="M14 5H5C3 5 2 6 2 8V16C2 18 3 19 5 19H14C16 19 17 18 17 16V8C17 6 16 5 14 5ZM12.75 12.5C12.75 12.914 12.414 13.25 12 13.25C11.586 13.25 11.25 12.914 11.25 12.5V11.311L7.53003 15.031C7.38403 15.177 7.192 15.251 7 15.251C6.808 15.251 6.61597 15.178 6.46997 15.031C6.17697 14.738 6.17697 14.263 6.46997 13.97L10.1899 10.25H9C8.586 10.25 8.25 9.914 8.25 9.5C8.25 9.086 8.586 8.75 9 8.75H12C12.098 8.75 12.1951 8.77011 12.2871 8.80811C12.4701 8.88411 12.6161 9.03011 12.6931 9.21411C12.7311 9.30611 12.751 9.40298 12.751 9.50098V12.5H12.75ZM22 7.56006V16.4399C22 17.0719 21.2689 17.4221 20.7759 17.0271L18.6121 15.29C18.5411 15.233 18.5 15.1469 18.5 15.0559V8.94409C18.5 8.85309 18.5411 8.76696 18.6121 8.70996L20.7759 6.9729C21.2689 6.5779 22 6.92806 22 7.56006Z" fill="currentColor"/>
</svg>

<svg xmlns="http://www.w3.org/2000/svg" width="24" height="24" fill="none"><path fill="currentColor" d="M14 5H5C3 5 2 6 2 8v8c0 2 1 3 3 3h9c2 0 3-1 3-3V8c0-2-1-3-3-3Zm-1.25 7.5a.75.75 0 0 1-1.5 0v-1.189l-3.72 3.72a.748.748 0 0 1-1.06 0 .75.75 0 0 1 0-1.061l3.72-3.72H9a.75.75 0 0 1 0-1.5h3a.751.751 0 0 1 .751.751V12.5h-.001ZM22 7.56v8.88a.753.753 0 0 1-1.224.587l-2.164-1.737a.3.3 0 0 1-.112-.234V8.944a.3.3 0 0 1 .112-.234l2.164-1.737A.753.753 0 0 1 22 7.56Z"/></svg>
